packages/tokens/icons/connector/size16Px.svg

<svg viewBox="0 0 16 16" fill="none" xmlns="http://www.w3.org/2000/svg" width="1em" height="1em"><path d="M4.5 3C4.5 3.82843 3.82843 4.5 3 4.5C2.17157 4.5 1.5 3.82843 1.5 3C1.5 2.17157 2.17157 1.5 3 1.5C3.82843 1.5 4.5 2.17157 4.5 3Z" stroke="currentColor"/><path d="M4.5 8C4.5 8.82843 3.82843 9.5 3 9.5C2.17157 9.5 1.5 8.82843 1.5 8C1.5 7.17157 2.17157 6.5 3 6.5C3.82843 6.5 4.5 7.17157 4.5 8Z" stroke="currentColor"/><path d="M4 8L10.5 8" stroke="currentColor"/><path d="M4.5 3H5.51194C6.39516 3 7.1738 3.57934 7.42759 4.4253L8.5 8" stroke="currentColor"/><path d="M4.5 13H5.51194C6.39516 13 7.1738 12.4207 7.42759 11.5747L8.5 8" stroke="currentColor"/><path d="M4.5 13C4.5 13.8284 3.82843 14.5 3 14.5C2.17157 14.5 1.5 13.8284 1.5 13C1.5 12.1716 2.17157 11.5 3 11.5C3.82843 11.5 4.5 12.1716 4.5 13Z" stroke="currentColor"/><path d="M10.9037 8.35355C10.7084 8.15829 10.7084 7.84171 10.9037 7.64645L12.3179 6.23223C12.5132 6.03697 12.8297 6.03697 13.025 6.23223L14.4392 7.64645C14.6345 7.84171 14.6345 8.15829 14.4392 8.35355L13.025 9.76777C12.8297 9.96303 12.5132 9.96303 12.3179 9.76777L10.9037 8.35355Z" stroke="currentColor"/></svg>

<svg xmlns="http://www.w3.org/2000/svg" fill="none" viewBox="0 0 16 16" width="1em" height="1em"><path stroke="currentColor" d="M4.5 3a1.5 1.5 0 1 1-3 0 1.5 1.5 0 0 1 3 0Zm0 5a1.5 1.5 0 1 1-3 0 1.5 1.5 0 0 1 3 0ZM4 8h6.5m-6-5h1.012a2 2 0 0 1 1.916 1.425L8.5 8m-4 5h1.012a2 2 0 0 0 1.916-1.425L8.5 8m-4 5a1.5 1.5 0 1 1-3 0 1.5 1.5 0 0 1 3 0Zm6.404-4.646a.5.5 0 0 1 0-.708l1.414-1.414a.5.5 0 0 1 .707 0l1.414 1.414a.5.5 0 0 1 0 .708l-1.414 1.414a.5.5 0 0 1-.707 0l-1.414-1.414Z"/></svg>
